svgs/sharp-regular/square-w.svg

<svg xmlns="http://www.w3.org/2000/svg" viewBox="0 0 448 512"><!--! Font Awesome Pro 6.6.0 by @fontawesome - https://fontawesome.com License - https://fontawesome.com/license (Commercial License) Copyright 2024 Fonticons, Inc. --><path d="M48 80l0 352 352 0 0-352L48 80zM0 32l48 0 352 0 48 0 0 48 0 352 0 48-48 0L48 480 0 480l0-48L0 80 0 32zM377.5 144L311.1 374.6l-5 17.4-35.6 0-5.3-16.7L224 246.7 182.9 375.3 177.5 392l-35.6 0-5-17.4L70.5 144l50 0 40.7 141.5 39.9-124.8 5.3-16.7 35 0 5.3 16.7 39.9 124.8L327.5 144l50 0z"/></svg>

<svg xmlns="http://www.w3.org/2000/svg" viewBox="0 0 448 512"><!--! Font Awesome Pro 6.4.0 by @fontawesome - https://fontawesome.com License - https://fontawesome.com/license (Commercial License) Copyright 2023 Fonticons, Inc. --><path d="M48 80V432H400V80H48zM0 32H48 400h48V80 432v48H400 48 0V432 80 32zM377.5 144L311.1 374.6l-5 17.4H270.5l-5.3-16.7L224 246.7 182.9 375.3 177.5 392H141.9l-5-17.4L70.5 144h50l40.7 141.5 39.9-124.8 5.3-16.7h35l5.3 16.7 39.9 124.8L327.5 144h50z"/></svg>
